_site/images/software-escrow/icons/recovery-white.svg

<svg fill="none" height="24" viewBox="0 0 24 24" width="24" xmlns="http://www.w3.org/2000/svg"><g clip-rule="evenodd" fill="#fff" fill-rule="evenodd"><path d="m10.6222 2.75513c.7884-.68978 1.9655-.68978 2.7538 0l7 6.125c.4537.39704.714.97063.714 1.57357v8.5462c0 1.1548-.9361 2.0909-2.0909 2.0909h-13.99999c-1.15478 0-2.09091-.9361-2.09091-2.0909v-8.5462c0-.60294.26028-1.17653.71404-1.57357zm1.317 1.64199.0002.00009zm.0599.05238 6.9091 6.0455v8.414h-13.81818v-8.414zm-6.93996 6.0725-.00016.0001-.05987-.0684.05987.0684c.00005 0 .00011-.0001.00016-.0001z"/><path d="m11.9991 8.90918c.6025 0 1.0909.48842 1.0909 1.09092v6c0 .6025-.4884 1.0909-1.0909 1.0909s-1.0909-.4884-1.0909-1.0909v-6c0-.6025.4884-1.09092 1.0909-1.09092z"/><path d="m7.9082 13.0001c0-.6025.48842-1.0909 1.09091-1.0909h5.99999c.6025 0 1.0909.4884 1.0909 1.0909s-.4884 1.0909-1.0909 1.0909h-5.99999c-.60249 0-1.09091-.4884-1.09091-1.0909z"/></g></svg>

<svg width="24" height="24" viewBox="0 0 24 24" fill="none" xmlns="http://www.w3.org/2000/svg">
<path fill-rule="evenodd" clip-rule="evenodd" d="M10.6222 2.75513C11.4106 2.06535 12.5877 2.06535 13.376 2.75513L20.376 8.88013C20.8297 9.27717 21.09 9.85076 21.09 10.4537V18.9999C21.09 20.1547 20.1539 21.0908 18.9991 21.0908H4.99911C3.84433 21.0908 2.9082 20.1547 2.9082 18.9999V10.4537C2.9082 9.85076 3.16848 9.27717 3.62224 8.88013L10.6222 2.75513ZM11.9392 4.39712L11.9394 4.39721L11.9392 4.39712ZM11.9991 4.4495L18.9082 10.495V18.909H5.09002V10.495L11.9991 4.4495ZM5.05914 10.522L5.05898 10.5221L4.99911 10.4537L5.05898 10.5221C5.05903 10.5221 5.05909 10.522 5.05914 10.522Z" fill="white"/>
<path fill-rule="evenodd" clip-rule="evenodd" d="M11.9991 8.90918C12.6016 8.90918 13.09 9.3976 13.09 10.0001V16.0001C13.09 16.6026 12.6016 17.091 11.9991 17.091C11.3966 17.091 10.9082 16.6026 10.9082 16.0001V10.0001C10.9082 9.3976 11.3966 8.90918 11.9991 8.90918Z" fill="white"/>
<path fill-rule="evenodd" clip-rule="evenodd" d="M7.9082 13.0001C7.9082 12.3976 8.39662 11.9092 8.99911 11.9092L14.9991 11.9092C15.6016 11.9092 16.09 12.3976 16.09 13.0001C16.09 13.6026 15.6016 14.091 14.9991 14.091L8.99911 14.091C8.39662 14.091 7.9082 13.6026 7.9082 13.0001Z" fill="white"/>
</svg>
